resources/svg/framer.svg

<svg xmlns="http://www.w3.org/2000/svg" viewBox="0 0 15 15" fill="currentColor"><path d="M2.03807 0.308658C2.11547 0.121821 2.29778 0 2.50001 0H12.5C12.7762 0 13 0.223858 13 0.5V5.5C13 5.77614 12.7762 6 12.5 6H8.70711L12.8536 10.1464C12.9966 10.2894 13.0393 10.5045 12.9619 10.6913C12.8845 10.8782 12.7022 11 12.5 11H8V14.5C8 14.7022 7.87818 14.8845 7.69134 14.9619C7.5045 15.0393 7.28945 14.9966 7.14645 14.8536L2.14645 9.85355C2.05268 9.75978 2 9.63261 2 9.5V5.5C2 5.22386 2.22386 5 2.5 5H6.29291L2.14646 0.853553C2.00346 0.710554 1.96068 0.495495 2.03807 0.308658Z" fill="black"/></svg>

<svg xmlns="http://www.w3.org/2000/svg" viewBox="0 0 15 15" fill="currentColor"><path d="M2.038.309A.5.5 0 012.5 0h10a.5.5 0 01.5.5v5a.5.5 0 01-.5.5H8.707l4.147 4.146A.5.5 0 0112.5 11H8v3.5a.5.5 0 01-.854.354l-5-5A.5.5 0 012 9.5v-4a.5.5 0 01.5-.5h3.793L2.146.854a.5.5 0 01-.108-.545z" fill="currentColor"/></svg>
